X: 103
T:Chicago Reel, The
M:C|
L:1/8
R:Reel
K:ADor
B[|:cded cAGE|GAGE GAcd|ecgc acgc|eaag ~e3d|!
cded cAGE|~G3E GAcd|eaag ~e3d|cABG A2AB:|!
|:cdef g2ef|gfgd BGGB|cdef gedg|eaag aged|!
cdef g2fg|abaf g3e|f3d e3d|cABG A2AB:|]!
